X: 831
T: The Sheep on the Mountains
B:O'Neill's 831
Z:Transcribed by Dan G. Petersen, dangp@post6.tele.dk
M:6/8
L:1/8
K:D
D|F3 G3|(A<d)B {d}cAG|A3 ~d3|A3 ~d3|
F3 G3|A2d cAF|~G3 AFD|~G3 AFD|
F3 G3|(A<d)B {d}cAG|(AB/A/G/A/) d3|(AB/A/G/A/) d3|
FFF GGG|(A<d)B {d}cAF|~G3 AFD|~GFE D2||
f|fed efg|{f}afd cAG|A3 ~d3|A3 ~d3|
fed efg|{f}afd cAF|~G3 AFD|~G3 AFD|
fed efg|{f}afd cAG|A3 ~d3|A3 ~d3|
f3 ~g3|afd cAF|~G3 AFD|~G3 AFD|]


